X:6
%%newpage 1
%%scale 0.7
T:Fantasy \`a 5 (VdGS Anon No.1607)
C:Anon
L:1/4
M:4/2
P:Bass
%%measurenb 0
%%squarebreve
K:C clef=bass
z2 A,2 D,2 G,2 | C, C>B, A, G, D, A,2 | D,2 D,2 A,4 | D,2 G,2 A,3 G, |
F, E, D, C,/B,,/ A,,4 | D, E, F, G, A,4 | G, D, A,2 D,4 | Z2 | z2 A, A,/A,/ A, D, F, G,/A,/ |
_B,2 A, A,, C, D, E,2  | D,2 ^C,2 D,2 E,2 | A,,4 D,4 |G,,4 C,4 | F,,2 C,2 F, G, A,2 | D,4 E,4 |
A,,4 z4 | Z7 | z2 A,3 E, F, D, | D3 A, C B, C D | B,4 A,4 | A,,2 D,4 F,2 |
E,8 | A,,3 B,, ^C,4 | D,4 E,4 | z4 z2 B,2-|B, ^F, G, E, B,4 | E,3 ^F, ^G,4 |
A,2 C2 B,2 D2-|D2 C2 B,4 | A,4 z4 | Z2 | D,3 E, ^F,4 |
G,2 D, C, B,,2 C, D, | E,4 E,4 | A,,4 D,3 C, | _B,,4 A,,4 | D,4 z4 | z2 D, E, F, E,/D,/ E, ^F, |
G, E, D,2 A,2 E, F, | G, F,/E,/ D,2 A,2 E,2 | z2 A,, B,, C, B,,/A,,/ B,, ^C, | D, C,/B,,/ A,, B,, C, D, E, F, | G, F,/E,/ D, C,/B,,/ A,,4 |
D,4 z4 | z8 | z4 z2 z A,, | B,,2 C,3 F,, G,, A,, | B,, C, D,2 A,,4 |
z2 D,2 C,4 |_B,,2 A,,2 G,,2 D,2 | A,3 A, B, ^C D2-|D G, A, B, C3 F,|
G, A, _B,2 A,4 | D,3 C, _B,,2 A,,2 | [M:6/2] G,,2 C,2 _B,,2 A,, G,, A,,4 |[M:4/2] D,8 |]
